X: 54
T: 40 Year
R: waltz
M: 3/4
K: Eminor
|:E2 F2 GD|A2 B2 d2|e4 ec|g2 e2 (3edB|
d2 B2 G2|dd B2 A2|A2 B2 e2|d2 A2 AG|
AG E3 E|A2 B2 BE|A2 B3 G|dd B2 A2|
G3 A ED|G2 A2 B2|1 A6-|A3 FG F:|2 A6|d2 e2 ge||
a4 ab|a2 g2 B2|g3 e ga|g2 e2 cB|
cB g3 B|BA f2 ad-|d4 dB|de g2 ea-|
a4 ab|a2 g2 b2|{g}e6|e2 d2 cB|
cB- B2 BG|d2 c2 B2|BA- A4|c2 B2 G2||

